!!!OTL: IM ARM DER LIEBE
!!!ARE: Europa, Mitteleuropa, Deutschland
!!!SCT: F1045
!!!YEM: Copyright 1995, estate of Helmut Schaffrath.
**kern
*ICvox
*Ivox
*M6/8
*k[b-]
*F:
{8f
=1
8.a
16b-
8g
8.f
16g
8a
=2
8.b-
16cc
8a
4g}
{8b-
=3
8a
8cc
8ff
8dd
8b-
8g
=4
4.f
4e}
{8f
=5
8.a
16b-
8g
8.f
16g
8a
=6
8.b-
16cc
8a
4g}
{8b-
=7
8a
8cc
8ff
8dd
8b-
8g
=8
4f
8e
4f}
{8g
=9
4g
8a
4b-
8g
=10
4a
8b-
4cc}
{8ff
=11
4.ff
4.a
=12
4.g
4.dd}
=13
{4.cc
4.e
=14
4.f
4r}
==
!!!AGN: Trost - Lied
!!!ONB: ESAC (Essen Associative Code) Database: FINK
!!!AMT: compound duple
!!!AIN: vox
!!!EED: Helmut Schaffrath
!!!EEV: 1.0
*-
